X:1
T:Title
%%score 1 2
L:1/8
Q:1/4=105
M:4/4
K:Ab
V:1 treble nm="Grand Piano, Soprano"
V:2 bass nm="Choir Pad, Bass"
V:1
 [CA]3 [DB] [Ec]3 [FB] | [FA]2 [DF]2 [DF]2 [CE]2 | [GB]3 [EA] [EG]2 [EA]2 | [DB]8 | %4
w: By~Old~Scottish~Song * * *||||
 [CA]3 [DB] [Ec]3 [FB] | [FA]2 [DF]2 [DF]2 [CE]2 | [EB]3 [Ec] [Ed]2 [EG]2 | [CA]8 | %8
w: ||||
 [Ac]3 [Ac] [EB]2 [EB]2 | [FA]3 [FA] [EG]2 [=EG]2 | [DF]3 [DF] [CE]2 [EA]2 | [GB]8 | %12
w: ||||
 [CA]3 [DB] [Ec]3 [FB] | [FA]2 [DF]2 [DF]2 [CE]2 | [EB]3 [Ec] [Ed]2 [DG]2 | [CA]8 |] %16
w: ||||
V:2
 [A,,A,]3 [A,,G,] [A,,A,]3 [D,A,] | [D,A,]2 [F,A,]2 A,2 A,2 | [E,D]3 [E,C] [E,B,]2 [E,C]2 | %3
 [E,B,]8 | [A,,A,]3 [A,,G,] [A,,A,]3 [D,A,] | [D,A,]2 [F,A,]2 A,2 [A,,A,]2 | %6
 [E,G,]3 [E,A,] [E,B,]2 [E,D]2 | [A,,A,]8 | [E,A,]3 [E,A,] [G,,G,]2 [G,,G,]2 | %9
 [F,,F,]3 [F,,F,] [C,,C,]2 [C,,C,]2 | [D,,D,]3 [D,,D,] [A,,E,]2 [E,A,]2 | [E,B,]8 | %12
 [A,,A,]3 [A,,G,] [A,,A,]3 [D,A,] | [D,A,]2 [F,A,]2 A,2 [A,,A,]2 | [E,G,]3 [E,A,] [E,B,]2 [E,B,]2 | %15
 [A,,A,]8 |] %16

